!!! OTL: Berkowitz141
!!! Chapter: 1
!!! Section: I
!!! Page: 32
!!! Mode: 
!!! Encoder: DJB
**kern
*staff1
*I"Piano
=1-
*clefG2
*k[f#c#]
*D:
*met(c|)
*M2/2
4d/
4d/
4f#/
4a/
=2
4c#/
4c#/
2a/
=3
4d/
4d/
2a/
=4
4e/
4e/
2a/
=5
4d/
4d/
4f#/
4a/
=6
4c#/
4c#/
4e/
4a/
=7
4g/
4f#/
4e/
4f#/
=8
1d
==
*-
